!!!COM: Palestrina, Giovanni Perluigi da
!!!OPR: Missa O admirabile commercium
!!!OTL: Gloria
**kern	**kern	**kern	**kern	**kern
*Ibass	*Itenor	*Itenor	*Icalto	*Icant
!Bassus	!Tenor 2	!Tenor 1	!Altus	!Cantus
*clefF4	*clefGv2	*clefGv2	*clefG2	*clefG2
*k[]	*k[]	*k[]	*k[]	*k[]
*G:mix	*G:mix	*G:mix	*G:mix	*G:mix
*M4/2	*M4/2	*M4/2	*M4/2	*M4/2
=1	=1	=1	=1	=1
0r	1r	0G	0b	0dd
.	[1g	.	.	.
=2	=2	=2	=2	=2
0r	2g]	0d	0a	0dd
.	4f#	.	.	.
.	4e	.	.	.
.	2f#	.	.	.
.	2f#	.	.	.
=3	=3	=3	=3	=3
0r	1g	1G	1b	1dd
.	1g	1G	1b	1dd
=4	=4	=4	=4	=4
0r	1.g	1.c	1.cc	1.ee
.	2g	2G	2b	2dd
=5	=5	=5	=5	=5
0r	2f#	1d	2a	2.dd
.	1a	.	2f#	.
.	.	.	.	4cc
.	.	1e	1g	2b
.	[2g	.	.	2cc
=6	=6	=6	=6	=6
0D	2g]	1d	0a	1dd
.	4f#	.	.	.
.	4e	.	.	.
.	1f#	1d	.	[1dd
=7	=7	=7	=7	=7
1G	2g	1B	1b	2dd]
.	2g	.	.	2dd
1G	1g	1d	1b	1dd
=8	=8	=8	=8	=8
1C	1e	2c	1cc	1ee
.	.	1c	.	.
1F	1f	.	1a	1cc
.	.	2A	.	.
=9	=9	=9	=9	=9
2G	1d	2r	[0g	2b
2G	.	2d	.	2b
1c	1r	1e	.	1cc
=10	=10	=10	=10	=10
2B	1r	2d	0g]	2dd
1c	.	1e	.	4cc
.	.	.	.	4dd
.	2r	.	.	4ee
.	.	.	.	4ff
2B	2d	2d	.	2gg
=11	=11	=11	=11	=11
2A	2.e	2c	2r	0r
2G	.	2B	2g	.
.	8d	.	.	.
.	8e	.	.	.
4F	1f	[1c	1a	.
4G	.	.	.	.
4A	.	.	.	.
4B	.	.	.	.
=12	=12	=12	=12	=12
2c	2e	2c]	2g	0r
2F	1f	2c	1a	.
2C	.	1c	.	.
2C	2e	.	2g	.
=13	=13	=13	=13	=13
2D	2d	2r	2f	0r
2E	2c	2.g	2e	.
2G	2B	.	2d	.
.	.	8f#	.	.
.	.	8e	.	.
2A	2c	2f#	2c	.
=14	=14	=14	=14	=14
1G	2d	2g	2B	2r
.	1g	1G	1b	1dd
1r	.	.	.	.
.	2g	2G	2b	2dd
=15	=15	=15	=15	=15
0r	1a	1c	1cc	1ee
.	2g	2G	2b	2dd
.	[2g	[2c	[2cc	[2ee
=16	=16	=16	=16	=16
0r	2g]	2c]	2cc]	2ee]
.	2g	2G	2b	2dd
.	2e	2A	2a	2cc
.	2d	2B	2g	2b
=17	=17	=17	=17	=17
1r	2e	2c	2g	2a
.	2d	2d	2f#	2a
2r	2d	2G	2g	2b
[2C	[2c	[2g	[2cc	[2ee
=18	=18	=18	=18	=18
2C]	2c]	2g]	2cc]	2ee]
2C	2c	2g	2cc	2ee
1F	1A	1a	1cc	1ff
=19	=19	=19	=19	=19
2C	2c	2g	2cc	2ee
1F	1c	1a	1cc	1ff
2C	2e	2g	2cc	2ee
=20	=20	=20	=20	=20
2D	2f	2f	2a	2dd
2E	2g	2e	2g	2cc
2F	2a	2d	2f	2cc
2G	2g	2d	2d	2b
=21	=21	=21	=21	=21
1C	1e	1c	1g	1cc
2r	2r	2r	2r	2r
[2C	[2e	[2c	[2g	[2ee
=22	=22	=22	=22	=22
2C]	2e]	2c]	2g]	2ee]
2C	2c	2c	2g	2ee
1G	1d	[1B	[1g	1dd
=23	=23	=23	=23	=23
1E	1G	2B]	2g]	1ee
.	.	2.c	2g	.
2F	2A	.	2f	2cc
.	.	4c	.	.
2D	2B	2F	2f	2dd
=24	=24	=24	=24	=24
1C	1c	1G	1e	1ee
1G	2.B	2G	2g	2dd
.	.	[2g	[2b	[2dd
.	4c	.	.	.
=25	=25	=25	=25	=25
0r	1d	2g]	2b]	2dd]
.	.	2f#	2a	2dd
.	1r	2g	2b	2dd
.	.	2e	2g	2cc
=26	=26	=26	=26	=26
0r	2r	2f#	2a	2dd
.	1g	2g	2b	2dd
.	.	2c	2cc	2ee
.	2f#	2d	2a	[2dd
=27	=27	=27	=27	=27
0r	2g	2G	2b	4dd]
.	.	.	.	4b
.	2e	2c	2cc	2.ee
.	2f#	2d	2a	.
.	.	.	.	4dd
.	2g	2B-	2b-	[2dd
=28	=28	=28	=28	=28
1r	2e	1A	1a	2dd]
.	2e	.	.	2cc#
2r	2f#	1d	2a	4dd
.	.	.	.	4cc
[2G	[2d	.	[2g	4b
.	.	.	.	4a
=29	=29	=29	=29	=29
4G]	4d]	0r	4g]	1b
4G	4d	.	4g	.
2G	2d	.	2g	.
2c	2e	.	2g	1r
2A	2c	.	2a	.
=30	=30	=30	=30	=30
2B-	2d	0r	2f	0r
2G	2e	.	2g	.
1F	1f	.	1a	.
=31	=31	=31	=31	=31
1c	1e	2r	2g	2r
.	.	1c	1g	1ee
1r	1r	.	.	.
.	.	2c	2a	2ee
=32	=32	=32	=32	=32
0r	0r	1g	1b	1dd
.	.	2e	2g	2ee
.	.	2f	2a	2cc
=33	=33	=33	=33	=33
1r	1r	2d	2b	2dd
.	.	2c	2cc	2ee
2r	2r	2g	1b	1dd
[2G	[2B	[2d	.	.
=34	=34	=34	=34	=34
4G]	4B]	4d]	0r	0r
4G	4B	4d	.	.
2F#	2A	2d	.	.
2G	2B	2d	.	.
2E	2c	2G	.	.
=35	=35	=35	=35	=35
2F#	2d	2A	0r	0r
2G	2.e	2B	.	.
2A	.	2c	.	.
.	4c	.	.	.
2F	2d	2A	.	.
=36	=36	=36	=36	=36
1E	2c	1G	2r	2r
.	2B	.	2.g	2.b
1D	1d	1r	.	.
.	.	.	4g	4b
.	.	.	2f#	2a
=37	=37	=37	=37	=37
0r	0r	1e	2g	2b
.	.	.	2e	2cc
.	.	2d	2f#	2dd
.	.	[2c	2g	[2ee
=38	=38	=38	=38	=38
0r	0r	2c]	2a	2ee]
.	.	2d	2f	1dd
.	.	1A	1e	.
.	.	.	.	2cc#
=39	=39	=39	=39	=39
0G	[0g	0d	0b	1dd
.	.	.	.	[1gg
=40	=40	=40	=40	=40
0c	1g]	0e	0cc	2gg]
.	.	.	.	2ff
.	1c	.	.	1ee
=41	=41	=41	=41	=41
1G	2d	1g	1b	2dd
.	2.e	.	.	4cc
.	.	.	.	4b
1A	.	1e	1a	2.cc
.	4d	.	.	.
.	[2c	.	.	.
.	.	.	.	4dd
=42	=42	=42	=42	=42
1.E	2c]	2.e	[0g	4ee
.	.	.	.	4ff
.	4B	.	.	1ee
.	4A	4f	.	.
.	2G	2g	.	.
2F	2A	4f	.	4dd
.	.	4e	.	4cc
=43	=43	=43	=43	=43
0G	2B	2d	0g]	2b
.	2e	2c	.	1cc
.	1d	1d	.	.
.	.	.	.	2b
=44	=44	=44	=44	=44
2C	2c	1e	1g	1cc
1c	1e	.	.	.
.	.	1r	[1g	2r
4B	4d	.	.	[2dd
4A	4c	.	.	.
=45	=45	=45	=45	=45
2B	2d	0r	2g]	2dd]
2c	2e	.	2g	2cc
1F	1f	.	2.a	1cc
.	.	.	8g	.
.	.	.	8f	.
=46	=46	=46	=46	=46
1A	1c	1r	2e	1cc
.	.	.	2f#	.
1G	1d	2r	2g	1b
.	.	[2g	[2b	.
=47	=47	=47	=47	=47
0r	0r	2g]	2b]	1.dd
.	.	4f#	4a	.
.	.	4e	4g	.
.	.	2f#	2a	.
.	.	2g	2b	2dd
=48	=48	=48	=48	=48
0r	0r	2.c	2.cc	1.ee
.	.	4d	4b	.
.	.	4e	4g	.
.	.	4f#	4a	.
.	.	[2g	[2b	4dd
.	.	.	.	4cc
=49	=49	=49	=49	=49
0r	0r	4g]	4b]	4dd
.	.	4a	4a	4cc
.	.	2f	1a	4cc
.	.	.	.	8b
.	.	.	.	8a
.	.	2.e	.	1b
.	.	.	2g#	.
.	.	4d	.	.
=50	=50	=50	=50	=50
2r	2r	2c#	1a	1a
1d	1f#	2d	.	.
.	.	1A	[1a	1r
4c#	4e	.	.	.
4B	4d	.	.	.
=51	=51	=51	=51	=51
2c#	2e	1r	2a]	1r
2d	2f#	.	2a	.
1G	1g	2r	2b	[1dd
.	.	[2g	[2b	.
=52	=52	=52	=52	=52
0r	1.d	2g]	2b]	1dd]
.	.	4f#	4a	.
.	.	4e	4g	.
.	.	2f#	2a	1dd
.	2G	2g	2b	.
=53	=53	=53	=53	=53
2r	2r	1c	2.cc	2.ee
1c	1e	.	.	.
.	.	.	8b	4ff
.	.	.	8a	.
.	.	2r	1g	[1gg
4B	4d	[2g	.	.
4A	4c	.	.	.
=54	=54	=54	=54	=54
2B	2d	2g]	2r	1gg]
2c	2e	2g	1cc	.
2.F	2f	2a	.	2.ff
.	[2f	[2a	2cc	.
4G	.	.	.	4ee
=55	=55	=55	=55	=55
4A	2f]	2a]	2cc	4cc
4B	.	.	.	4dd
2.c	2e	4g	2.cc	2.ee
.	.	4f	.	.
.	1r	4g	.	.
4d	.	4f	4b-	4dd
2B-	.	4e	2g	[2dd
.	.	4d	.	.
=56	=56	=56	=56	=56
0A	2r	0e	1a	2dd]
.	2a	.	.	4cc#
.	.	.	.	4b
.	2a	.	2r	1cc#
.	2e	.	2a	.
=57	=57	=57	=57	=57
[0D	2f#	[0d	2a	[0dd
.	1g	.	2b-	.
.	.	.	1a	.
.	4f#	.	.	.
.	4e	.	.	.
=58	=58	=58	=58	=58
0D]	0f#	0d]	0a	0dd]
=59	=59	=59	=59	=59
0r	0r	1r	1r	0dd
.	.	1g	1b	.
=60	=60	=60	=60	=60
0r	0r	1c	1cc	1ee
.	.	2g	2b	2dd
.	.	2g	2b	2dd
=61	=61	=61	=61	=61
0r	0r	2f	2a	2dd
.	.	2e	2g	2ee
.	.	1d	2a	1ff
.	.	.	2b	.
=62	=62	=62	=62	=62
0r	2r	2c	2cc	2ee
.	1G	1g	1b	1dd
.	2G	2g	2b	2dd
=63	=63	=63	=63	=63
0r	1c	2g	1cc	4ee
.	.	.	.	4ff
.	.	2e	.	4gg
.	.	.	.	4ee
.	1A	2.a	2cc	2ff
.	.	.	[2a	[2ee
.	.	4g	.	.
=64	=64	=64	=64	=64
0r	1B-	2f	4a]	4ee]
.	.	.	4f	4dd
.	.	4e	2g	1dd
.	.	4d	.	.
.	1A	1e	[1a	.
.	.	.	.	2cc#
=65	=65	=65	=65	=65
1r	1d	1f#	1a]	1dd
1d	1f#	1r	1a	2r
.	.	.	.	2dd
=66	=66	=66	=66	=66
1G	1g	2r	1b	1dd
.	.	1d	.	.
2d	2f	.	2a	1dd
2d	2d	2f	2a	.
=67	=67	=67	=67	=67
2c	2e	2e	2a	0r
2B	2g	2d	2b	.
1A	1a	2e	1cc	.
.	.	2f#	.	.
=68	=68	=68	=68	=68
1G	1d	2g	1b	1r
.	.	2g	.	.
1r	[1f	[1a	[1cc	[1ff
=69	=69	=69	=69	=69
0r	2f]	2a]	2cc]	2ff]
.	2c	2g	2cc	2ee
.	1c	1g	1cc	1ee
=70	=70	=70	=70	=70
0r	2.d	2.f	2.a	2.dd
.	4d	4f	4a	4dd
.	2d	2f	2a	2dd
.	2A	2e	2a	2cc
=71	=71	=71	=71	=71
0r	2B	2d	4g	2dd
.	.	.	4f	.
.	2c	2c	4e	1ee
.	.	.	4d	.
.	1A	2e	1c	.
.	.	2f#	.	4dd
.	.	.	.	4cc
=72	=72	=72	=72	=72
0r	0G	0g	1e	2b
.	.	.	.	1cc
.	.	.	1d	.
.	.	.	.	2b
=73	=73	=73	=73	=73
1C	1g	1e	2c	1cc
.	.	.	2cc	.
1c	1g	1e	1cc	1r
=74	=74	=74	=74	=74
2G	2g	2d	2b	0r
2G	2g	2d	2b	.
1A	2.e	1c	1a	.
.	4e	.	.	.
=75	=75	=75	=75	=75
2E	2e	2B	2g	0r
2F	4d	2A	2a	.
.	4c	.	.	.
[1G	2e	[1B	2.g	.
.	4d	.	.	.
.	4c	.	8f	.
.	.	.	8e	.
=76	=76	=76	=76	=76
2G]	4B	2B]	1d	0r
.	4c	.	.	.
2F	1d	2A	.	.
1E	.	2G	1e	.
.	2c#	[2g	.	.
=77	=77	=77	=77	=77
2D	1d	2g]	0a	1dd
1d	.	2f	.	.
.	1A	2.e	.	[1ee
4c#	.	.	.	.
4B	.	4d	.	.
=78	=78	=78	=78	=78
2c#	2r	2e	1a	2ee]
2d	2d	2f#	.	2dd
2G	2d	2.g	2b	2dd
2G	[2g	.	2b	2dd
.	.	4f	.	.
=79	=79	=79	=79	=79
1c	2g]	4e	0cc	0ee
.	.	4d	.	.
.	2g	4c	.	.
.	.	4B	.	.
1C	1g	1c	.	.
=80	=80	=80	=80	=80
2G	2g	2d	1b	0dd
1G	1d	1B	.	.
.	.	.	1r	.
2F#	2d	2A	.	.
=81	=81	=81	=81	=81
2G	2d	2B	0r	0r
2E	2G	2c	.	.
2F#	2A	2d	.	.
[2G	[2B	[2e	.	.
=82	=82	=82	=82	=82
4G]	2B]	4e]	1r	0r
4D	.	4d	.	.
2F	2A	1d	.	.
1E	1G	.	2r	.
.	.	2c#	[2g	.
=83	=83	=83	=83	=83
1D	2r	1d	2g]	2r
.	2d	.	2f#	1dd
1r	2e	1r	2g	.
.	[2f	.	[2a	2cc
=84	=84	=84	=84	=84
0r	4f]	2r	4a]	2dd
.	8e	.	8g	.
.	8d	.	8f	.
.	2c	2a	2e	2.ee
.	2d	2a	2f	.
.	.	.	.	4dd
.	2B-	2g	2d	[2dd
=85	=85	=85	=85	=85
1r	1A	2a	1e	2dd]
.	.	2a	.	2cc#
2r	1d	2f	2r	1dd
[2d	.	[2f	[2a	.
=86	=86	=86	=86	=86
2d]	0r	2f]	2a]	0r
2c#	.	2e	2a	.
2d	.	2f	2a	.
2B	.	2d	2g	.
=87	=87	=87	=87	=87
2c#	1r	2e	2a	1r
2d	.	2f#	2a	.
1G	2r	2.g	2b	2r
.	[2g	.	[2b	[2dd
.	.	8f	.	.
.	.	8e	.	.
=88	=88	=88	=88	=88
0r	2g]	1d	2b]	2dd]
.	2f#	.	2a	2dd
.	2g	2r	2b	2dd
.	2g	2G	2b	2dd
=89	=89	=89	=89	=89
0r	2e	2g	2cc	2ee
.	2d	2a	2dd	2ff#
.	1g	1b-	1dd	1gg
=90	=90	=90	=90	=90
0F	1.c	0a	0cc	0ff
.	2d	.	.	.
=91	=91	=91	=91	=91
0c	2.e	2.g	0cc	0ee
.	4f	4f	.	.
.	2g	4e	.	.
.	.	4d	.	.
.	[2a	2e	.	.
=92	=92	=92	=92	=92
0d	2a]	2f#	2a	0dd
.	1g	2g	2b	.
.	.	2a	1a	.
.	2f#	[2d	.	.
=93	=93	=93	=93	=93
0G	0g	4d]	1b	1dd
.	.	4c	.	.
.	.	4B	.	.
.	.	4A	.	.
.	.	2G	2r	2r
.	.	2g	2b	2dd
=94	=94	=94	=94	=94
0r	0r	1c	1cc	1ee
.	.	1d	1a	1ff#
=95	=95	=95	=95	=95
0r	0r	1e	4g	1gg
.	.	.	4a	.
.	.	.	4b	.
.	.	.	8a	.
.	.	.	8b	.
.	.	1c	2cc	1ee
.	.	.	2cc	.
=96	=96	=96	=96	=96
1r	1r	1g	1b	0dd
1G	1B	1d	2g	.
.	.	.	[2g	.
=97	=97	=97	=97	=97
1C	1c	1e	4g]	0r
.	.	.	4f	.
.	.	.	2e	.
1D	1A	1f#	2.d	.
.	.	.	4c	.
=98	=98	=98	=98	=98
1E	4G	1g	4B	0r
.	4A	.	4A	.
.	4B	.	2G	.
.	8A	.	.	.
.	8B	.	.	.
1C	2c	1e	2g	.
.	2c	.	2g	.
=99	=99	=99	=99	=99
1G	2B	1d	2g	2r
.	2G	.	2b	2dd
1r	2c	1r	2cc	2ee
.	2d	.	2a	2ff#
=100	=100	=100	=100	=100
0r	2e	0r	2g	2gg
.	1c	.	1cc	1ee
.	2d	.	2b	2dd
=101	=101	=101	=101	=101
0r	2f	1r	2a	2cc
.	2g	.	1g	2b
.	1d	2r	.	1a
.	.	[2d	2f#	.
=102	=102	=102	=102	=102
1G	2G	2d]	1g	1g
.	2g	2e	.	.
2A	2c	2f#	1r	1r
2B	2d	[2g	.	.
=103	=103	=103	=103	=103
2c	1e	2g]	0r	2.cc
1A	.	1c	.	.
.	.	.	.	4b
.	2f	.	.	2a
2G	2e	2B	.	2b
=104	=104	=104	=104	=104
2F	2d	2A	0r	2dd
2E	1c	2G	.	2ee
1D	.	1d	.	1ff
.	2B	.	.	.
=105	=105	=105	=105	=105
1C	1c	2g	2r	2ee
.	.	2e	2g	2gg
1r	1r	2f	2a	2cc
.	.	2d	2b	2dd
=106	=106	=106	=106	=106
1.C	1.g	2c	2cc	1ee
.	.	1e	1cc	.
.	.	.	.	1r
2D	2f	2d	2b	.
=107	=107	=107	=107	=107
2F	4f	2c	2a	1r
.	4e	.	.	.
2G	4d	2B	1g	.
.	4c	.	.	.
1D	2d	1A	.	1a
.	[2d	.	2f#	.
=108	=108	=108	=108	=108
0G	2d]	1G	1.g	2b
.	1c	.	.	2cc
.	.	2r	.	1dd
.	2B	[2g	2d	.
=109	=109	=109	=109	=109
1.C	2c	4g]	1e	2.gg
.	.	4f	.	.
.	1c	4e	.	.
.	.	4d	.	4ff
.	.	2c	2g	2ee
2G	2d	2B	2g	2dd
=110	=110	=110	=110	=110
2C	2e	2c	0g	0cc
2C	2e	2c	.	.
1C	1c	1e	.	.
=111	=111	=111	=111	=111
0G	0B	0d	0g	0dd
==	==	==	==	==
*-	*-	*-	*-	*-
!!!CDT: 1525/^1526/-1594/2/2
!!!OCY: Italia
!!!AGN: Mass (Parody)
!!!AST: renaissance, vocal
!!!ASW: Motet 1569 (Palestrina)
!!!PWK: Masses, Book 8
!!!RNB: Cadence finals: C,D
!!!YOR: Le Opere Complete, v. 24, p. 52
!!!YOO: Rome, Italy: Fratelli Scalera
!!!END: 1992//
!!!EED: John Miller
!!!YEC: Copyright 2000, John Miller
!!!YEN: United States of America
!!!YEM: Rights to all derivative electronic formats reserved.
!!!YEM: Refer to licensing agreement for further details.
!!!YEM: This file must be accompanied by the licensing agreement.
!!!YEM: A copy of the licensing agreement may be found at http://www.music-cog.ohio-state.edu/HumdrumDatabases/Palestrina/license.txt
!!!EMD: converted to Humdrum by Bret Aarden
